X: 120015
T: KAFOOZALUM
Q: "Highland Schottische."
R: Schottische.
%R: shottish
B: James Kerr "Merry Melodies" v.1 p.20 s.0 #15
Z: 2017 John Chambers <jc:trillian.mit.edu>
M: C
L: 1/8
K: D
|:\
va2a>vg uf>vgua2 | ve>vfug>uf ve>vfug2 |\
va2-a>vg uf>vgua>vf | ud>veuf>vd (e2d2) ::\
vf>vduA>ud vf>vdf2 | g>ec>e g>eg2 |\
f>dA>f f>df2 | d>ef>d e2d2 :|

%%sep 1 1 500
%%sep 1 1 500

